X:134
T:Red Ribbon,The. JJo1.134
B:J.Johnson Choice Collection Vol 1 after c1750?
Z:vmp. Anne Wride 2015. www.village-music-project.org.uk
M:6/8
L:1/8
Q:3/8=120
K:Em
|: e2B B2A | GFG E2B | efg f2e | ^def B3 |
gfe d2c | B3 g3 | dcB AGF | G3- G3 ?
|: BAG B2c | de^c d3 | AGF A2B | cBA B2f |
gfe ^def | A3 ABc | BAG F2E | E3- E3 ?
W:Each strain twice.
W:The 1st Cu. cross over and turn hands round all four, and back again with 3d Cu. in 2d Cu. place
W:The 2d Cu. do the same
W:The 1st Cu. being at top cross over and turn hand sides half round, and back again into the 2d Cu. place
W:The other two do the same, which brings them into the 2d Cu. place, the 1st Cu. cast off

